svg_80x80/python.svg

<svg viewBox="0 0 80 80" xmlns="http://www.w3.org/2000/svg">
<rect width="100%" height="100%" fill="white"/>
<path d="M39.6244 7.99998C37.1792 8.00299 34.7386 8.21172 32.3284 8.62398C25.8644 9.76798 24.6964 12.152 24.6964 16.56V22.4H40.0004V24.32H18.9604C14.5284 24.32 10.6404 26.984 9.42445 32.056C8.00045 37.872 8.00045 41.504 9.42445 47.576C10.5124 52.096 13.1044 55.32 17.5364 55.32H22.7924V48.344C22.8479 45.8367 23.8719 43.4483 25.6496 41.6795C27.4274 39.9107 29.821 38.8988 32.3284 38.856H47.5764C48.5867 38.8476 49.5855 38.6402 50.5155 38.2456C51.4456 37.851 52.2888 37.2769 52.9969 36.5562C53.7049 35.8355 54.264 34.9823 54.6421 34.0454C55.0202 33.1085 55.2099 32.1063 55.2004 31.096V16.56C55.2004 12.424 51.7124 9.31198 47.5684 8.62398C44.9425 8.1948 42.2852 7.98607 39.6244 7.99998V7.99998ZM31.3684 12.68C31.946 12.6705 32.5133 12.8329 32.9983 13.1467C33.4833 13.4605 33.864 13.9114 34.092 14.4421C34.32 14.9728 34.385 15.5594 34.2788 16.1271C34.1725 16.6949 33.8998 17.2183 33.4954 17.6306C33.0909 18.043 32.5729 18.3258 32.0073 18.443C31.4417 18.5602 30.854 18.5066 30.319 18.2889C29.7839 18.0712 29.3257 17.6993 29.0026 17.2205C28.6795 16.7417 28.5061 16.1776 28.5044 15.6C28.498 14.8333 28.7959 14.0953 29.3328 13.5479C29.8697 13.0006 30.6018 12.6884 31.3684 12.68V12.68Z" fill="url(#paint0_linear_64_531)"/>
<path d="M57.1123 24.32V31.096C57.0903 33.634 56.0838 36.0643 54.3048 37.8746C52.5259 39.6849 50.1135 40.7337 47.5763 40.8H32.3283C30.2951 40.8417 28.3588 41.6767 26.9328 43.1266C25.5069 44.5765 24.7042 46.5264 24.6963 48.56V63.08C24.6963 67.216 28.2883 69.648 32.3283 70.832C37.292 72.3874 42.6126 72.3874 47.5763 70.832C51.4243 69.72 55.2003 67.48 55.2003 63.08V57.256H40.0003V55.32H62.8483C67.2803 55.32 68.9363 52.224 70.4803 47.576C72.0803 42.776 72.0083 38.192 70.4803 32.056C69.3843 27.64 67.2803 24.32 62.8483 24.32H57.1123ZM48.5363 61.12C49.1145 61.1105 49.6825 61.2733 50.1678 61.5878C50.6531 61.9023 51.0338 62.3542 51.2614 62.8858C51.4889 63.4175 51.553 64.0048 51.4455 64.5731C51.338 65.1413 51.0637 65.6646 50.6576 66.0764C50.2515 66.4881 49.732 66.7696 49.1654 66.885C48.5987 67.0004 48.0105 66.9445 47.4757 66.7244C46.941 66.5042 46.4839 66.1298 46.1627 65.6489C45.8415 65.168 45.6708 64.6023 45.6723 64.024C45.6702 63.2616 45.9705 62.5294 46.5073 61.988C47.0442 61.4466 47.7739 61.1402 48.5363 61.136V61.12Z" fill="url(#paint1_linear_64_531)"/>
<linearGradient id="paint0_linear_64_531" x1="6.52269" y1="10.2013" x2="41.8095" y2="40.0262" gradientUnits="userSpaceOnUse">
<stop stop-color="#5A9FD4"/>
<stop offset="1" stop-color="#306998"/>
</linearGradient>
<linearGradient id="paint1_linear_64_531" x1="54.7273" y1="59.0708" x2="42.0185" y2="41.4077" gradientUnits="userSpaceOnUse">
<stop stop-color="#FFD43B"/>
<stop offset="1" stop-color="#FFE873"/>
</linearGradient>
</svg>

<svg xmlns="http://www.w3.org/2000/svg" viewBox="0 0 80 80">
  <rect width="100%" height="100%" fill="#fff"/>
  <path fill="url(#a)" d="M39.62 8c-2.44 0-4.88.21-7.3.62-6.46 1.15-7.62 3.53-7.62 7.94v5.84H40v1.92H18.96c-4.43 0-8.32 2.66-9.54 7.74C8 37.87 8 41.5 9.42 47.58c1.1 4.52 3.68 7.74 8.12 7.74h5.25v-6.98a9.7 9.7 0 0 1 9.54-9.48h15.25a7.69 7.69 0 0 0 7.62-7.76V16.56c0-4.14-3.49-7.25-7.63-7.94A47.7 47.7 0 0 0 39.62 8Zm-8.25 4.68a2.91 2.91 0 1 1 .1 5.82 2.91 2.91 0 0 1-.1-5.82Z"/>
  <path fill="url(#b)" d="M57.11 24.32v6.78a9.8 9.8 0 0 1-9.53 9.7H32.33a7.8 7.8 0 0 0-7.63 7.76v14.52c0 4.14 3.59 6.57 7.63 7.75a25.5 25.5 0 0 0 15.25 0c3.84-1.11 7.62-3.35 7.62-7.75v-5.82H40v-1.94h22.85c4.43 0 6.09-3.1 7.63-7.74 1.6-4.8 1.53-9.39 0-15.52-1.1-4.42-3.2-7.74-7.63-7.74H57.1Zm-8.57 36.8a2.91 2.91 0 1 1-2.03.87 2.88 2.88 0 0 1 2.03-.85v-.02Z"/>
  <linearGradient id="a" x1="6.52" x2="41.81" y1="10.2" y2="40.03" gradientUnits="userSpaceOnUse">
    <stop stop-color="#5A9FD4"/>
    <stop offset="1" stop-color="#306998"/>
  </linearGradient>
  <linearGradient id="b" x1="54.73" x2="42.02" y1="59.07" y2="41.41" gradientUnits="userSpaceOnUse">
    <stop stop-color="#FFD43B"/>
    <stop offset="1" stop-color="#FFE873"/>
  </linearGradient>
</svg>
